logos/allen_qcr.svg

<?xml version="1.0" encoding="UTF-8"?>
<!DOCTYPE svg PUBLIC "-//W3C//DTD SVG 1.1//EN" "http://www.w3.org/Graphics/SVG/1.1/DTD/svg11.dtd">
<svg xmlns="http://www.w3.org/2000/svg" version="1.1" width="136px" height="100px" style="shape-rendering:geometricPrecision; text-rendering:geometricPrecision; image-rendering:optimizeQuality; fill-rule:evenodd; clip-rule:evenodd" xmlns:xlink="http://www.w3.org/1999/xlink">
<g><path style="opacity:1" fill="#0f1216" d="M -0.5,-0.5 C 44.8333,-0.5 90.1667,-0.5 135.5,-0.5C 135.5,32.8333 135.5,66.1667 135.5,99.5C 90.1667,99.5 44.8333,99.5 -0.5,99.5C -0.5,66.1667 -0.5,32.8333 -0.5,-0.5 Z"/></g>
<g><path style="opacity:1" fill="#dee4e9" d="M 38.5,46.5 C 55.3376,45.8081 62.1709,53.8081 59,70.5C 58.2739,73.6207 56.7739,76.2873 54.5,78.5C 55.711,80.4219 57.0443,82.2552 58.5,84C 51.5183,82.1414 44.185,81.1414 36.5,81C 28.1598,75.3238 25.3265,67.4905 28,57.5C 29.6844,51.9845 33.1844,48.3178 38.5,46.5 Z"/></g>
<g><path style="opacity:1" fill="#dde3e8" d="M 93.5,57.5 C 91.7354,58.4614 89.7354,58.7947 87.5,58.5C 83.2744,51.3811 78.1077,50.7144 72,56.5C 69.8777,62.2867 70.2111,67.9533 73,73.5C 79.0952,77.0599 83.9285,75.8932 87.5,70C 89.4727,69.5045 91.4727,69.3379 93.5,69.5C 93.4436,75.1028 90.777,78.9362 85.5,81C 71.4434,83.9372 64.1101,78.2705 63.5,64C 64.0847,50.5297 71.0847,44.863 84.5,47C 89.5266,48.8534 92.5266,52.3534 93.5,57.5 Z"/></g>
<g><path style="opacity:1" fill="#dfe5ea" d="M 98.5,47.5 C 104.842,47.3338 111.175,47.5005 117.5,48C 123.257,50.6825 125.424,55.1825 124,61.5C 122.357,63.9768 120.524,66.3102 118.5,68.5C 120.96,72.5859 123.293,76.7525 125.5,81C 122.833,81.6667 120.167,81.6667 117.5,81C 115.372,77.2454 113.372,73.4121 111.5,69.5C 109.604,68.5344 107.604,68.2011 105.5,68.5C 105.5,72.8333 105.5,77.1667 105.5,81.5C 103.167,81.5 100.833,81.5 98.5,81.5C 98.5,70.1667 98.5,58.8333 98.5,47.5 Z"/></g>
<g><path style="opacity:1" fill="#121419" d="M 48.5,70.5 C 46.3066,69.2031 43.9732,69.2031 41.5,70.5C 41.6236,71.1067 41.9569,71.44 42.5,71.5C 45.1458,74.8272 44.1458,75.9938 39.5,75C 36.9057,73.661 35.4057,71.4944 35,68.5C 32.2671,58.062 36.1004,52.8953 46.5,53C 49,54.1667 50.8333,56 52,58.5C 52.6667,62.1667 52.6667,65.8333 52,69.5C 51.0735,72.7058 49.9068,73.0392 48.5,70.5 Z"/></g>
<g><path style="opacity:1" fill="#17191e" d="M 105.5,52.5 C 108.941,52.3011 112.274,52.8011 115.5,54C 118.311,57.2935 117.978,60.2935 114.5,63C 111.518,63.498 108.518,63.6646 105.5,63.5C 105.5,59.8333 105.5,56.1667 105.5,52.5 Z"/></g>
<g><path style="opacity:1" fill="#7d8287" d="M 93.5,57.5 C 94.0431,57.56 94.3764,57.8933 94.5,58.5C 92.0268,59.7969 89.6934,59.7969 87.5,58.5C 89.7354,58.7947 91.7354,58.4614 93.5,57.5 Z"/></g>
<g><path style="opacity:1" fill="#767a80" d="M 48.5,70.5 C 46.2646,70.2053 44.2646,70.5386 42.5,71.5C 41.9569,71.44 41.6236,71.1067 41.5,70.5C 43.9732,69.2031 46.3066,69.2031 48.5,70.5 Z"/></g>
</svg>

<svg xmlns="http://www.w3.org/2000/svg" width="136" height="100" style="shape-rendering:geometricPrecision;text-rendering:geometricPrecision;image-rendering:optimizeQuality;fill-rule:evenodd;clip-rule:evenodd"><path style="opacity:1" fill="#0f1216" d="M-.5-.5h136v100H-.5V-.5z"/><path style="opacity:1" fill="#dee4e9" d="M38.5 46.5c16.838-.692 23.67 7.308 20.5 24-.726 3.12-2.226 5.787-4.5 8a51.095 51.095 0 0 0 4 5.5c-6.982-1.859-14.315-2.859-22-3-8.34-5.676-11.174-13.51-8.5-23.5 1.684-5.516 5.184-9.182 10.5-11z"/><path style="opacity:1" fill="#dde3e8" d="M93.5 57.5c-1.765.961-3.765 1.295-6 1-4.226-7.119-9.392-7.786-15.5-2-2.122 5.787-1.789 11.453 1 17 6.095 3.56 10.928 2.393 14.5-3.5a18.436 18.436 0 0 1 6-.5c-.056 5.603-2.723 9.436-8 11.5-14.057 2.937-21.39-2.73-22-17 .585-13.47 7.585-19.137 21-17 5.027 1.853 8.027 5.353 9 10.5z"/><path style="opacity:1" fill="#dfe5ea" d="M98.5 47.5c6.342-.166 12.675 0 19 .5 5.757 2.682 7.924 7.182 6.5 13.5a55.482 55.482 0 0 1-5.5 7 228.338 228.338 0 0 1 7 12.5 16.25 16.25 0 0 1-8 0 187.113 187.113 0 0 1-6-11.5 9.864 9.864 0 0 0-6-1v13h-7v-34z"/><path style="opacity:1" fill="#121419" d="M48.5 70.5c-2.193-1.297-4.527-1.297-7 0 .124.607.457.94 1 1 2.646 3.327 1.646 4.494-3 3.5-2.594-1.339-4.094-3.506-4.5-6.5-2.733-10.438 1.1-15.605 11.5-15.5 2.5 1.167 4.333 3 5.5 5.5a30.499 30.499 0 0 1 0 11c-.926 3.206-2.093 3.54-3.5 1z"/><path style="opacity:1" fill="#17191e" d="M105.5 52.5a24.365 24.365 0 0 1 10 1.5c2.811 3.294 2.478 6.294-1 9a40.939 40.939 0 0 1-9 .5v-11z"/><path style="opacity:1" fill="#7d8287" d="M93.5 57.5c.543.06.876.393 1 1-2.473 1.297-4.807 1.297-7 0 2.235.295 4.235-.039 6-1z"/><path style="opacity:1" fill="#767a80" d="M48.5 70.5c-2.235-.295-4.235.039-6 1-.543-.06-.876-.393-1-1 2.473-1.297 4.807-1.297 7 0z"/></svg>
